dist/svgs/crypto-icons/icons/xmr.svg

<?xml version="1.0" encoding="UTF-8" standalone="yes"?>
<svg xmlns="http://www.w3.org/2000/svg" xmlns:xlink="http://www.w3.org/1999/xlink" width="512px" height="512px" viewBox="0 0 384 384" version="1.1">
  <g id="surface1">
    <path style=" stroke:none;fill-rule:nonzero;fill:rgb(0%,0%,0%);fill-opacity:1;" d="M 67.195312 252.089844 L 67.195312 91.128906 L 191.9375 215.871094 L 316.558594 91.25 L 316.558594 252.089844 L 373.964844 252.089844 C 380.378906 232.667969 383.640625 212.339844 383.621094 191.886719 C 383.621094 85.988281 297.78125 0.144531 191.882812 0.144531 C 85.984375 0.144531 0.140625 85.988281 0.140625 191.886719 C 0.140625 212.921875 3.539062 233.152344 9.796875 252.089844 Z M 67.195312 252.089844 "/>
    <path style=" stroke:none;fill-rule:nonzero;fill:rgb(0%,0%,0%);fill-opacity:1;" d="M 274.957031 291.089844 L 274.957031 189.335938 L 191.230469 273.0625 L 108.089844 189.921875 L 108.089844 291.09375 L 27.773438 291.09375 C 61.375 346.554688 122.296875 383.625 191.882812 383.625 C 261.464844 383.625 322.390625 346.554688 355.992188 291.09375 L 274.957031 291.09375 Z M 274.957031 291.089844 "/>
  </g>
</svg>

<svg xmlns="http://www.w3.org/2000/svg" viewBox="0 0 384 384"><path d="M67.195 252.09V91.129L191.938 215.87l124.62-124.62v160.84h57.407a191.411 191.411 0 009.656-60.203C383.621 85.988 297.781.145 191.883.145 85.984.145.14 85.988.14 191.887c0 21.035 3.398 41.265 9.656 60.203zm0 0"/><path d="M274.957 291.09V189.336l-83.727 83.726-83.14-83.14v101.172H27.773c33.602 55.46 94.524 92.531 164.11 92.531 69.582 0 130.508-37.07 164.11-92.531h-81.036zm0 0"/></svg>
